X: 25231
T: Mama's Pet
R: jig
M: 6/8
K: Amixolydian
|:FAA Bcd|cAA cde|f3 ged|cAF GFE|
FAA Bcd|cAA cde|f3 ged|1 cAA A2G:|2 cAA A2f||
|:gfg eaa|ged cde|f3 ged|cAF GFE|
FAA Bcd|cAA cde|f3 ged|1 cAA A2f:|2 cAA A2G||

